X: 26995
T: Miss Falconer
R: reel
M: 4/4
K: Aminor
c/B/|AEAB c2 cd|(BG)dG eGdG|AEAB c2 cd|(BG)dB cAA:|
B|Aaa^g aecA|Ggg^f gdBG|Aaa^g aed=f|ecdB cAAB|
Aaa^g aecA|Ggg^f gdBG|AcBd ced=f|ecdB cAA||

